icon/pk/data-four.svg

<svg viewBox="0 0 48 48" fill="none" xmlns="http://www.w3.org/2000/svg" height="1em" width="1em">
  <g clip-path="url(#clip0_12383_8755)">
    <ellipse cx="24" cy="11" rx="20" ry="6" stroke="black" stroke-width="4" stroke-linecap="round" stroke-linejoin="round"/>
    <path d="M10.7709 15.5C6.61878 16.5994 4 18.208 4 20C4 23.3137 12.9543 26 24 26C35.0457 26 44 23.3137 44 20C44 18.208 41.3812 16.5994 37.2291 15.5" stroke="black" stroke-width="4" stroke-linecap="round" stroke-linejoin="round"/>
    <path d="M10.7709 24.5C6.61878 25.5994 4 27.208 4 29C4 32.3137 12.9543 35 24 35C35.0457 35 44 32.3137 44 29C44 27.208 41.3812 25.5994 37.2291 24.5" stroke="black" stroke-width="4" stroke-linecap="round" stroke-linejoin="round"/>
    <path d="M10.7709 33.5C6.61878 34.5994 4 36.208 4 38C4 41.3137 12.9543 44 24 44C35.0457 44 44 41.3137 44 38C44 36.208 41.3812 34.5994 37.2291 33.5C33.7035 34.4335 29.0722 35 24 35C18.9278 35 14.2965 34.4335 10.7709 33.5Z" fill="#2F88FF" stroke="black" stroke-width="4" stroke-linecap="round" stroke-linejoin="round"/>
  </g>
  <defs>
    <clipPath id="clip0_12383_8755">
      <rect width="48" height="48" fill="white"/>
    </clipPath>
  </defs>
</svg>

<svg width="48" height="48" fill="none" xmlns="http://www.w3.org/2000/svg"><g clip-path="url(#a)" stroke="#000" stroke-width="4" stroke-linecap="round" stroke-linejoin="round"><ellipse cx="24" cy="11" rx="20" ry="6"/><path d="M10.77 15.5C6.62 16.6 4 18.208 4 20c0 3.314 8.954 6 20 6s20-2.686 20-6c0-1.792-2.619-3.4-6.77-4.5"/><path d="M10.77 24.5C6.62 25.6 4 27.208 4 29c0 3.314 8.954 6 20 6s20-2.686 20-6c0-1.792-2.619-3.4-6.77-4.5"/><path d="M10.77 33.5C6.62 34.6 4 36.208 4 38c0 3.314 8.954 6 20 6s20-2.686 20-6c0-1.792-2.619-3.4-6.77-4.5-3.526.934-8.158 1.5-13.23 1.5-5.072 0-9.704-.566-13.23-1.5Z" fill="#2F88FF"/></g><defs><clipPath id="a"><path fill="#fff" d="M0 0h48v48H0z"/></clipPath></defs></svg>
